X:74
T:Jenny Nettles
S:The Scots Musical Museum, #52, 1787.
Q:1/4=120
L:1/8
M:C|
K:Gmin
A|B3/2 c/ B A G2 g2|d3/2 e/ f d c  A F A|\
B3/2 c/ B A G2 g2|f d c e d2 G:|\
A|B3/2 c/ d G B3/2 c/ d G|A3/2 B/ c F A3/2 B/ c A|\
B3/2 c/ d G B3/2 c/ e g/ g/|f d e c d2 G:|]
